X: 1
T:Beaux of London City, Badby
M:6/8
L:1/8
A:Badby
P:A(AB)5
K:A
P:A
|:A2B c2A|dec ABc|\
M:9/8
L:1/8
d2c BGE A3:|
P:B
|:e2c B2A ce2|A2A B2c d3|\
M:6/8
e2c d2B|AGF EAc|\
M:9/8
edc dcB A3:|
